X:72
T: WOL UNTER EINER LINDE SCHLIEF
N: E0683A
O: Europa, Mitteleuropa, Deutschland, Vormark, Priegnitz
R: Liebes - Lied, Leid, Klage
M: 2/4
L: 1/16
K: G
D2 | G3DG2A2 | B2G2A4 |
B4AGA2 | G4z2
Bc | d2d2d2Bc | d2B2G4 |
B4dcA2 | G4z2

